source/img/favicons/icon.svg

<svg width="32" height="32" viewBox="0 0 32 32" fill="none" xmlns="http://www.w3.org/2000/svg">
<rect width="32" height="32" rx="8" fill="#EEEEEE"/>
<path fill-rule="evenodd" clip-rule="evenodd" d="M25.922 10.5435L27.9716 19.1449C28.0005 19.2336 28.0075 19.3281 27.9919 19.4201C27.9763 19.5122 27.9386 19.5989 27.8821 19.6726C27.8257 19.7463 27.7522 19.8047 27.6683 19.8426C27.5843 19.8806 27.4924 19.897 27.4007 19.8902H25.7709C25.4901 22.2541 23.5048 24.0861 21.0976 24.0861C18.6903 24.0861 16.7051 22.2541 16.4243 19.8902H15.6249C15.3438 22.2815 13.3367 24.1356 10.9024 24.1356C8.46409 24.1356 6.45431 22.2752 6.17859 19.8781H4.58989C4.50018 19.8825 4.41074 19.865 4.32905 19.8271C4.24736 19.7892 4.17578 19.7319 4.12029 19.6602C4.0648 19.5884 4.02702 19.5042 4.01009 19.4145C3.99316 19.3249 3.99758 19.2324 4.02299 19.1449L6.07652 10.5435C6.21923 9.59677 7.10725 7.86441 9.48586 7.86441C9.64357 7.86441 9.79482 7.92808 9.90634 8.04141C10.0179 8.15474 10.0805 8.30845 10.0805 8.46872C10.0805 8.62899 10.0179 8.7827 9.90634 8.89603C9.79482 9.00936 9.64357 9.07303 9.48586 9.07303C7.57108 9.07303 7.27375 10.5758 7.24996 10.7409L5.35897 18.6856H6.18631C6.48985 16.3192 8.48563 14.4916 10.9024 14.4916C13.3179 14.4916 15.3128 16.3172 15.6181 18.6817L16.4307 18.6854C16.734 16.3465 18.7078 14.541 21.0976 14.541C23.492 14.541 25.4688 16.3535 25.7662 18.6991V18.6776H26.6356L24.7486 10.7409C24.7208 10.5758 24.4354 9.07303 22.5127 9.07303C22.355 9.07303 22.2037 9.00936 22.0922 8.89603C21.9807 8.7827 21.918 8.62899 21.918 8.46872C21.918 8.30845 21.9807 8.15474 22.0922 8.04141C22.2037 7.92808 22.355 7.86441 22.5127 7.86441C24.8913 7.86441 25.7793 9.59677 25.922 10.5435ZM14.4429 19.8902C14.4725 19.7024 14.4878 19.5098 14.4878 19.3136C14.4878 19.0982 14.4693 18.8872 14.4339 18.6821C14.1391 16.9755 12.6701 15.6785 10.9024 15.6785C9.13369 15.6785 7.66408 16.9771 7.37046 18.6851C7.33537 18.8893 7.31707 19.0993 7.31707 19.3136C7.31707 19.5066 7.33192 19.6962 7.36051 19.8811C7.62925 21.6191 9.1127 22.9486 10.9024 22.9486C12.689 22.9486 14.1704 21.6238 14.4429 19.8902ZM24.5887 19.8902C24.6186 19.7025 24.6341 19.5099 24.6341 19.3136C24.6341 17.3333 23.0508 15.728 21.0976 15.728C19.1444 15.728 17.561 17.3333 17.561 19.3136C17.561 19.5099 17.5765 19.7025 17.6065 19.8902C17.8785 21.5963 19.338 22.8992 21.0976 22.8992C22.8572 22.8992 24.3166 21.5963 24.5887 19.8902Z" fill="black"/>
</svg>

<svg width="32" height="32" viewBox="0 0 32 32" fill="none" xmlns="http://www.w3.org/2000/svg"><rect width="32" height="32" rx="8" fill="#EEE"/><path fill-rule="evenodd" clip-rule="evenodd" d="M25.92 10.54l2.05 8.6a.58.58 0 01-.09.53.56.56 0 01-.48.22h-1.63a4.73 4.73 0 01-4.67 4.2c-2.41 0-4.4-1.84-4.68-4.2h-.8a4.78 4.78 0 01-4.72 4.25 4.78 4.78 0 01-4.72-4.26H4.59a.55.55 0 01-.47-.22.58.58 0 01-.1-.52l2.06-8.6a3.26 3.26 0 013.4-2.68c.16 0 .31.07.43.18a.6.6 0 010 .86.59.59 0 01-.42.17c-1.92 0-2.22 1.5-2.24 1.67l-1.9 7.95h.84c.3-2.37 2.3-4.2 4.71-4.2a4.78 4.78 0 014.72 4.2h.81a4.73 4.73 0 014.67-4.15c2.4 0 4.37 1.81 4.67 4.16v-.02h.87l-1.9-7.94c-.02-.16-.3-1.67-2.23-1.67a.59.59 0 01-.42-.17.6.6 0 010-.86.59.59 0 01.42-.18 3.26 3.26 0 013.41 2.68zM14.44 19.9a3.7 3.7 0 000-1.2 3.6 3.6 0 00-3.54-3.01 3.6 3.6 0 00-3.54 4.2 3.6 3.6 0 003.54 3.07 3.6 3.6 0 003.54-3.06zm10.15 0a3.56 3.56 0 00-3.5-4.16 3.56 3.56 0 00-3.48 4.16c.27 1.7 1.73 3 3.49 3 1.76 0 3.22-1.3 3.49-3z" fill="#000"/></svg>
